X: 12406
T: Far Away
R: waltz
M: 3/4
K: Bminor
FA|:B2 BF B/c/d|cAF EFA|B2B F B/c/d|c2c d c/B/A|
B2 BF B/c/d|cB A2 de|fed cBA|1 B2 B2 FA:|2 B2B cde|
|:f2f e f/g/a|ecA ede|f2f e f/g/a|e4 de|
fdB ecA|dBG dBG|F2 B2 BA|1 B2 Bc de:|2 B6||

